X:1
T:Widow’s Daughter
L:1/8
M:4/4
I:linebreak $
K:D
V:1 treble 
V:1
 DBed B3 A | D B3 dBAF | DBed B3 g | (3fgf ec dBAF | D B3 d B3 | D B3 dBAF |$ AF (3FFF ABde | %7
 (3fgf ec dB A2 | f a3 fede | fdad BAAe | f a3 b2 ag | (3fgf ec dB A2 |$ f a3 fede | fdad BAAe | %14
 f a3 b2 ag | (3fgf ec dB A2 || %16
